!!!COM:	Du Fay, Guillaume
!!!CDT:	~1397/08/05/-1474/11/27
!!!OPR:	Missa Ave regina celorum
!!!ONM:	2
!!!OTL:	Gloria
!!!AGN:	Mass; Gloria
!!!SCT:	Duf1002b
!!!SCA:	Duf1002b
!!!voices:	4
!!!voices-OPR:	4
**kern	**text	**kern	**text	**kern	**text	**kern	**text
*staff4	*staff4	*staff3	*staff3	*staff2	*staff2	*staff1	*staff1
*Ivox	*	*Ivox	*	*Ivox	*	*Ivox	*
*I"Bassus	*	*I"Tenor	*	*I"Contratenor	*	*I"Cantus	*
*I'B	*	*I'T	*	*I'Ct	*	*I'Cn	*
*>[A,B,C,D,E,F]	*>[A,B,C,D,E,F]	*>[A,B,C,D,E,F]	*>[A,B,C,D,E,F]	*>[A,B,C,D,E,F]	*>[A,B,C,D,E,F]	*>[A,B,C,D,E,F]	*>[A,B,C,D,E,F]
*>A	*>A	*>A	*>A	*>A	*>A	*>A	*>A
*clefF4	*	*clefGv2	*	*clefGv2	*	*clefG2	*
*k[]	*	*k[b-]	*	*k[]	*	*k[]	*
*M3/1	*	*M3/1	*	*M3/1	*	*M3/1	*
*met(O)	*	*met(O)	*	*met(O)	*	*met(O)	*
*MM336	*	*MM336	*	*MM336	*	*MM336	*
=1-	=1-	=1-	=1-	=1-	=1-	=1-	=1-
!!section: Et in terra pax
!!!OMD: Et in terra pax
0F	A-	0.r	.	0f	Et	1.cc	Et
.	.	.	.	.	.	2b\	.
1F	.	.	.	1c	in	1a	in
=2	=2	=2	=2	=2	=2	=2	=2
1E-	.	0.r	.	1c	ter-	1g	ter-
1.D	.	.	.	2.d\	-ra	2f/	.
.	.	.	.	.	.	2.a/	.
.	.	.	.	4c\	.	.	.
.	.	.	.	[1A	.	.	.
.	.	.	.	.	.	4g/	.
2C/	.	.	.	.	.	2e/	.
=3	=3	=3	=3	=3	=3	=3	=3
1D	.	0.r	.	1A]	.	1f	-ra
1.E-	.	.	.	0G	pax	1.g	pax
2C/	.	.	.	.	.	2eni/	.
=4	=4	=4	=4	=4	=4	=4	=4
0.C	-ve,	0c	A-	2r	.	1e	.
.	.	.	.	1g	ho-	.	.
.	.	.	.	.	.	2r	.
.	.	.	.	2f\	.	2a/	ho-
.	.	1c	.	1e	.	2g/	.
.	.	.	.	.	.	2e/	.
=5	=5	=5	=5	=5	=5	=5	=5
0D	a-	1B-	.	2d\	-mi-	2f/	-mi-
.	.	.	.	1f	.	2d/	.
.	.	1.A	.	.	.	2f/	-ni-
.	.	.	.	2e\	.	2g/	.
2D\	.	.	.	1d	-ni-	1a	-bus
2Eni\	.	2G/	.	.	.	.	.
=6	=6	=6	=6	=6	=6	=6	=6
1F	.	1A	.	1c	-bus	1a	bo-
0G	.	1.B-	.	2.g\	bo-	1d	.
.	.	.	.	4f\	.	.	.
.	.	.	.	1d	-ne	[1g	-ne
.	.	[2G/	.	.	.	.	.
=7	=7	=7	=7	=7	=7	=7	=7
1C	.	2G/]	.	1e	vo-	2g/]	.
.	.	2A/	.	.	.	2cc\	vo-
2E\	.	2G/	.	1c	-lun-	2b\	-lun-
2F\	.	1c	.	.	.	2a/	.
1D	.	.	.	1d 1f	-ta-	4b/	-ta-
.	.	.	.	.	.	4a/	.
.	.	2Bni\	.	.	.	4g/	.
.	.	.	.	.	.	4f/	.
=8	=8	=8	=8	=8	=8	=8	=8
0.C	-ve,	0.c	-ve,	0G 0g	-tis.	1e	-tis.
.	.	.	.	.	.	1r	.
.	.	.	.	1r	.	1cc	Lau-
=9	=9	=9	=9	=9	=9	=9	=9
0.r	.	0.c	re-	1g	Lau-	1cc	-da-
.	.	.	.	1g	-da-	1.cc	-mus
.	.	.	.	1g	-mus	.	.
.	.	.	.	.	.	4b/	.
.	.	.	.	.	.	4a/	.
=10	=10	=10	=10	=10	=10	=10	=10
0G	re-	0.d	-gi-	1.g	te.	0b	te.
.	.	.	.	2f\	.	.	.
1G	-gi-	.	.	1d	.	1b	Be-
=11	=11	=11	=11	=11	=11	=11	=11
0C	-na	0.e	.	0c	Be-	2cc\	.
.	.	.	.	.	.	2b\	.
.	.	.	.	.	.	1g	.
1C	ce-	.	.	1g	-ne-	1cc	-ne-
=12	=12	=12	=12	=12	=12	=12	=12
0c	-lo-	0.e	-na	0g	-di-	1.cc	-di-
.	.	.	.	.	.	2b\	.
1c	.	.	.	1e	-ci-	1cc	-ci-
=13	=13	=13	=13	=13	=13	=13	=13
0G	.	0.r	.	1.d	-mus	1dd	-mus
.	.	.	.	.	.	1b	.
.	.	.	.	2g\	.	.	.
1A	.	.	.	2.f\	.	2cc\	.
.	.	.	.	.	.	2a/	.
.	.	.	.	4e\	.	.	.
=14	=14	=14	=14	=14	=14	=14	=14
2G\	.	0.r	.	2g\	.	2b\	.
2F\	.	.	.	2a\	.	2cc\	.
1B-i	.	.	.	2d\	.	1dd	.
.	.	.	.	1g	.	.	.
1A	.	.	.	.	.	1cc	.
.	.	.	.	2f#i\	.	.	.
=15	=15	=15	=15	=15	=15	=15	=15
0.G	-rum,	0d	ce-	0g	te.	1b	te.
.	.	.	.	.	.	1r	.
.	.	1e	.	1r	.	1b	Ad-
=16	=16	=16	=16	=16	=16	=16	=16
0F	ce-	0f	-lo-	1a	Ad-	2a/	-o-
.	.	.	.	.	.	1cc	.
.	.	.	.	1a	-o-	.	.
.	.	.	.	.	.	2dd\	.
1C	.	1e	.	1g	.	1ee	.
=17	=17	=17	=17	=17	=17	=17	=17
1D	-lo-	1d	.	1f	-ra-	2a/	-ra-
.	.	.	.	.	.	2b\	.
2C/	.	2e\	.	1g	.	2.cc\	.
2E\	.	1c	.	.	.	.	.
.	.	.	.	.	.	4b\	.
2F\	.	.	.	2f\	-mus	2a/	.
2G\	.	2Bni\	.	2d\	.	[2g/	.
=18	=18	=18	=18	=18	=18	=18	=18
1C	.	2.c\	.	2e\	.	2g/]	.
.	.	.	.	2c\	.	2ee\	.
.	.	4A/	.	.	.	.	.
2G\	.	2Bni\	.	4d\	.	2dd\	.
.	.	.	.	4e\	.	.	.
2A\	.	2c\	.	4f\	.	1cc	.
.	.	.	.	8e\L	.	.	.
.	.	.	.	8f\J	.	.	.
1G	.	1d	.	1g	.	.	.
.	.	.	.	.	.	2b\	-mus
=19	=19	=19	=19	=19	=19	=19	=19
[0.C	-rum,	0c	-rum,	2r	.	[0.cc	te.
.	.	.	.	2g\	te.	.	.
.	.	.	.	2a\	.	.	.
.	.	.	.	2g\	.	.	.
.	.	1c	ce-	2.e\	.	.	.
.	.	.	.	4f\	.	.	.
=20	=20	=20	=20	=20	=20	=20	=20
0.C]	.	2e\	-lo-	1g	.	0.cc]	.
.	.	2f\	.	.	.	.	.
.	.	1g	.	1c	.	.	.
.	.	1c	.	1r	.	.	.
=21	=21	=21	=21	=21	=21	=21	=21
1r	.	2g\	.	1c	Glo-	0.r	.
.	.	2e\	.	.	.	.	.
1r	.	4g\	.	1B	-ri-	.	.
.	.	4f\	.	.	.	.	.
.	.	2d\	.	.	.	.	.
1C	ce-	1c	-rum.	2c\	-fi-	.	.
.	.	.	.	2e\	.	.	.
=22	=22	=22	=22	=22	=22	=22	=22
1BB	.	0.r	.	2d\	.	0.r	.
.	.	.	.	1g	-ca-	.	.
2C/	.	.	.	.	.	.	.
2E\	.	.	.	2g\	-mus	.	.
2D\	.	.	.	2f\	.	.	.
[2G\	.	.	.	2e\	.	.	.
=23	=23	=23	=23	=23	=23	=23	=23
2G\]	.	0.r	.	2d\	.	0.r	.
2G\	-lo-	.	.	4c\	.	.	.
.	.	.	.	4B\	.	.	.
2F\	.	.	.	2A/	.	.	.
2E\	.	.	.	2G/	.	.	.
2.D\	.	.	.	2.B\	.	.	.
4E\	.	.	.	4c\	.	.	.
=24	=24	=24	=24	=24	=24	=24	=24
2F\	.	0.r	.	2d\	.	0.r	.
2G\	.	.	.	2.e\	.	.	.
2C/	.	.	.	.	.	.	.
.	.	.	.	4c\	.	.	.
2E\	.	.	.	1c	.	.	.
1D	.	.	.	.	.	.	.
.	.	.	.	2B\	.	.	.
=25	=25	=25	=25	=25	=25	=25	=25
0.Cl	-rum.	0.r	.	0.cl	te.	0.r	.
!!LO:LB:i:g=z
=26||	=26||	=26||	=26||	=26||	=26||	=26||	=26||
*>B	*>B	*>B	*>B	*>B	*>B	*>B	*>B
*clefF4	*	*clefGv2	*	*clefGv2	*	*clefG2	*
*k[]	*	*k[b-]	*	*k[]	*	*k[]	*
*M3/1	*	*M3/1	*	*M3/1	*	*M3/1	*
*met(O)	*	*met(O)	*	*met(O)	*	*met(O)	*
*MM336	*	*MM336	*	*MM336	*	*MM336	*
!!section: Gratias agimus tibi
!!!OMD: Gratias agimus tibi
0.r	.	0c	A-	0.r	.	1g	Gra-
.	.	.	.	.	.	1cc	-ti-
.	.	1c	.	.	.	2b\	-as
.	.	.	.	.	.	[2a/	.
=27	=27	=27	=27	=27	=27	=27	=27
!!LO:TX:Z=36:t=(NB&colon; in Cantus and Tenor, there is an
!!LO:TX:Z=16:t=extra breve of rest in place of a double bar.)
0.r	.	1B-	.	0.r	.	2a/]	.
.	.	.	.	.	.	2g/	.
.	.	1A	.	.	.	2a/	.
.	.	.	.	.	.	2cc\	a-
.	.	2G/	.	.	.	2b\	-gi-
.	.	[2B-\	.	.	.	[2dd\	-mus
=28	=28	=28	=28	=28	=28	=28	=28
0.r	.	4B-\]	.	0.r	.	4dd\]	.
.	.	4c\	.	.	.	4cc\	.
.	.	2d\	.	.	.	4b\	.
.	.	.	.	.	.	4a\	.
.	.	2G/	.	.	.	2b\	.
.	.	2B-\	.	.	.	1g	.
.	.	1A	.	.	.	.	.
.	.	.	.	.	.	2f#i/	.
=29	=29	=29	=29	=29	=29	=29	=29
0.r	.	1.G	.	0.r	.	2.g/	ti-
.	.	.	.	.	.	4a/	.
.	.	.	.	.	.	2b\	.
.	.	1A	.	.	.	2cc\	.
.	.	.	.	.	.	4b/	.
.	.	.	.	.	.	4a/	.
.	.	2Bni\	.	.	.	4g/	.
.	.	.	.	.	.	4f/	.
=30	=30	=30	=30	=30	=30	=30	=30
0.r	.	0c	-ve,	0.r	.	1e	-bi
.	.	.	.	.	.	2r	.
.	.	.	.	.	.	2a/	pro-
.	.	1c	do-	.	.	2g/	.
.	.	.	.	.	.	2e/	.
=31	=31	=31	=31	=31	=31	=31	=31
0.r	.	1d	-mi-	0.r	.	2f/	-pter
.	.	.	.	.	.	4e/	.
.	.	.	.	.	.	4d/	.
.	.	1e	.	.	.	1c	.
.	.	1e	-na	.	.	1r	.
=32	=32	=32	=32	=32	=32	=32	=32
0.r	.	2r	.	0.r	.	2.cc\	ma-
.	.	1e	an-	.	.	.	.
.	.	.	.	.	.	4b\	.
.	.	.	.	.	.	2cc\	.
.	.	2d\	-ge-	.	.	2dd\	.
.	.	2e\	.	.	.	4cc\	.
.	.	.	.	.	.	4b\	.
.	.	[2f\	.	.	.	2a/	.
=33	=33	=33	=33	=33	=33	=33	=33
0.r	.	4f\]	.	0.r	.	2cc\	.
.	.	4e\	.	.	.	.	.
.	.	2f\	.	.	.	2dd\	.
.	.	2g\	-lo-	.	.	2.b\	.
.	.	2.e\	.	.	.	.	.
.	.	.	.	.	.	4a/	.
.	.	.	.	.	.	2b\	.
.	.	4d\	.	.	.	.	.
.	.	2e\	.	.	.	2cc\	.
=34	=34	=34	=34	=34	=34	=34	=34
0.r	.	2f\	.	0.r	.	2.a/	-gnam
.	.	2.d\	.	.	.	.	.
.	.	.	.	.	.	4f/	.
.	.	.	.	.	.	2g/	.
.	.	4B-\	.	.	.	.	.
.	.	2c\	.	.	.	2e/	.
.	.	2d\	.	.	.	2d/	.
.	.	2G/	.	.	.	2r	.
=35	=35	=35	=35	=35	=35	=35	=35
0.r	.	2r	.	0.r	.	2.dd\	glo-
.	.	2.g\	.	.	.	.	.
.	.	.	.	.	.	4cc\	.
.	.	.	.	.	.	4b/	.
.	.	4f\	.	.	.	4a/	.
.	.	2e\	.	.	.	2g/	.
.	.	2d\	.	.	.	4f/	.
.	.	.	.	.	.	2a/	.
.	.	[2c\	.	.	.	.	.
.	.	.	.	.	.	4g/	.
=36	=36	=36	=36	=36	=36	=36	=36
0.r	.	2c\]	.	0.r	.	2e/	.
.	.	2d\	.	.	.	2f/	-ri-
.	.	2e\	.	.	.	2.g/	-am
.	.	2.c\	.	.	.	.	.
.	.	.	.	.	.	4f/	.
.	.	.	.	.	.	2e/	.
.	.	4A/	.	.	.	.	.
.	.	2B-\	.	.	.	2d/	.
=37	=37	=37	=37	=37	=37	=37	=37
0.r	.	2c\	.	0.r	.	2r	.
.	.	2d\	.	.	.	4f/	tu-
.	.	.	.	.	.	4g/	.
.	.	2r	.	.	.	2a/	.
.	.	2G/	.	.	.	4g/	.
.	.	.	.	.	.	2e/	.
.	.	4A/	.	.	.	.	.
.	.	2B-\	.	.	.	4d/	.
.	.	.	.	.	.	2g/	.
.	.	4c\	.	.	.	.	.
=38	=38	=38	=38	=38	=38	=38	=38
0.r	.	2A/	.	0.r	.	4f/	.
.	.	.	.	.	.	4e/	.
.	.	2G/	.	.	.	2g/	.
.	.	1c	.	.	.	4r	.
.	.	.	.	.	.	4a/	.
.	.	.	.	.	.	4g/	.
.	.	.	.	.	.	4a/	.
.	.	2d\	.	.	.	2.b\	.
.	.	2e\	.	.	.	.	.
.	.	.	.	.	.	4cc\	.
=39	=39	=39	=39	=39	=39	=39	=39
0.r	.	2f\	.	0.r	.	2dd\	.
.	.	2g\	.	.	.	2.ee\	.
.	.	1c	.	.	.	.	.
.	.	.	.	.	.	4cc\	.
.	.	.	.	.	.	1cc	.
.	.	1d	.	.	.	.	.
.	.	.	.	.	.	2b\	.
=40	=40	=40	=40	=40	=40	=40	=40
0.r	.	0.cl	-rum.	0.r	.	0.ccl	-am.
!!LO:LB:i:g=z
=41||	=41||	=41||	=41||	=41||	=41||	=41||	=41||
*>C	*>C	*>C	*>C	*>C	*>C	*>C	*>C
*clefF4	*	*clefGv2	*	*clefGv2	*	*clefG2	*
*k[]	*	*k[b-]	*	*k[]	*	*k[]	*
*M3/1	*	*M3/1	*	*M3/1	*	*M3/1	*
*met(O)	*	*met(O)	*	*met(O)	*	*met(O)	*
*MM336	*	*MM336	*	*MM336	*	*MM336	*
!!section: Domine deus rex celestis
!!!OMD: Domine deus rex celestis
0C	Sal-	0c	Sal-	0g	Do-	0cc	Do-
[1G	.	1d	.	1g	-mi-	[1b	-mi-
=42	=42	=42	=42	=42	=42	=42	=42
1G]	.	1e	.	1g	-ne	2b\]	.
.	.	.	.	.	.	2g/	.
1F	.	1f	.	1c	de-	1a	.
1G	.	2d\	.	1B	-us,	1b	-ne
.	.	2c\	.	.	.	.	.
=43	=43	=43	=43	=43	=43	=43	=43
0.C	-ve,	1e	-ve,	1c	rex	1g	de-
.	.	1.g	ra-	1c	ce-	0e	.
.	.	.	.	1c	-le-	.	.
.	.	2f\	.	.	.	.	.
=44	=44	=44	=44	=44	=44	=44	=44
1C	ra-	1e	.	1G	-stis,	1c	-us,
1BB	.	1d	.	1r	.	2d/	rex
.	.	.	.	.	.	2f/	.
1C	-dix	1c	-dix	1r	.	2e/	.
.	.	.	.	.	.	[2g/	.
=45	=45	=45	=45	=45	=45	=45	=45
1r	.	1e	san-	1g	de-	2g/]	.
.	.	.	.	.	.	2cc\	ce-
0G	san-	0d	.	1g	-us	2dd\	-le-
.	.	.	.	.	.	1b	.
.	.	.	.	1g	pa-	.	.
.	.	.	.	.	.	2a/	.
=46	=46	=46	=46	=46	=46	=46	=46
1A	-cta,	0.c	-cta,	1e	-ter	1cc	-stis,
2F\	.	.	.	2a\	om-	1r	.
2G\	.	.	.	2g\	.	.	.
1A	.	.	.	2.e\	-ni-	1cc	de-
.	.	.	.	4f\	.	.	.
=47	=47	=47	=47	=47	=47	=47	=47
2G\	.	0.r	.	4e\	-po-	2b\	-us
.	.	.	.	4d\	.	.	.
1F	.	.	.	4f\	.	1a	pa-
.	.	.	.	4e\	.	.	.
.	.	.	.	4d\	.	.	.
.	.	.	.	4c\	.	.	.
2E\	.	.	.	1c	.	2g/	.
1D	.	.	.	.	.	2a/	.
.	.	.	.	2B\	.	2f/	.
=48	=48	=48	=48	=48	=48	=48	=48
1C	ex	0.c	ex	1c	-tens.	1g	-ter
0F	qua	.	.	1A	.	1a	om-
.	.	.	.	1r	.	[1f	-ni-
=49	=49	=49	=49	=49	=49	=49	=49
2r	.	1A	qua	1a	Do-	1f]	.
2F\	mun-	.	.	.	.	.	.
2G\	.	2B-\	mun-	1g	-mi-	2d/	-po-
2E\	.	2G/	.	.	.	2e/	.
1F	.	1A	.	1f	-ne	[1c	-tens.
=50	=50	=50	=50	=50	=50	=50	=50
0.C	-do	0G	.	0e	fi-	0c]	.
.	.	1G	.	1e	-li,	2r	.
.	.	.	.	.	.	[2cc\	Do-
=51	=51	=51	=51	=51	=51	=51	=51
0.r	.	2A/	.	1f	do-	2cc\]	.
.	.	2Bni\	.	.	.	2dd\	-mi-
.	.	1.c	.	2e\	.	2.ee\	-ne
.	.	.	.	1g	-mi-	.	.
.	.	.	.	.	.	4ff\	.
.	.	.	.	.	.	4ee\	.
.	.	.	.	.	.	4cc\	.
.	.	2Bni\	.	[2g\	-ne	2dd\	.
=52	=52	=52	=52	=52	=52	=52	=52
0.r	.	1c	.	2g\]	.	2ee\	fi-
.	.	.	.	2a\	fi-	1cc	.
.	.	1d	.	2.f\	.	.	.
.	.	.	.	.	.	2b\	.
.	.	.	.	4e\	.	.	.
.	.	1c	-do	1g	-li	1cc	-li
=53	=53	=53	=53	=53	=53	=53	=53
0.C	lux	1r	.	2e\	u-	2r	.
.	.	.	.	2c\	-ni-	1ee	u-
.	.	0c	lux	2e\	-ge-	.	.
.	.	.	.	2f\	-ni-	2dd\	.
.	.	.	.	1g	-te	1cc	-ni-
=54	=54	=54	=54	=54	=54	=54	=54
0.G	est	1d	est	1r	.	1b	-ge-
.	.	1.e	.	1g	Je-	1b	-ni-
.	.	.	.	1g	-su	1b	-te
.	.	2d\	.	.	.	.	.
=55	=55	=55	=55	=55	=55	=55	=55
1F	or-	1f	or-	0c	Chri-	2a/	Je-
.	.	.	.	.	.	1.cc	.
1A	.	2e\	.	.	.	.	.
.	.	2c\	.	.	.	.	.
1B	.	1d	.	1G	-ste,	2b\	.
.	.	.	.	.	.	2dd\	.
=56	=56	=56	=56	=56	=56	=56	=56
1c	.	2c\	.	1e	Je-	2ee\	.
.	.	1A	.	.	.	1cc	.
2F\	.	.	.	2f\	-su	.	.
2G\	.	2Bni\	.	2d\	.	2b\	.
2A\	.	1c	.	2c\	.	1a	.
2F\	.	.	.	2f\	.	.	.
=57	=57	=57	=57	=57	=57	=57	=57
2r	.	1G	.	2e\	.	2g/	-su
2E\	.	.	.	2g\	.	2r	.
2F\	.	2A/	.	2f\	.	2cc\	Chri-
1G	.	2Bni\	.	2d\	.	2b\	.
.	.	2G/	.	1g	.	2dd\	.
2E\	.	[2c\	.	.	.	2ee\	.
=58	=58	=58	=58	=58	=58	=58	=58
2F\	.	2c\]	.	2a\	Chri-	2cc\	.
2D\	.	2Bni\	.	2f\	.	2ff\	.
1C	.	2c\	.	0g	.	2.ee\	.
.	.	2e\	.	.	.	.	.
.	.	.	.	.	.	8dd\L	.
.	.	.	.	.	.	8cc\J	.
1G	.	1d	.	.	.	2.b\	.
.	.	.	.	.	.	4a/	.
=59	=59	=59	=59	=59	=59	=59	=59
0.Cl	-ta.	0.cl	-ta.	2e\	.	0.ccl	-ste.
.	.	.	.	2f\	.	.	.
.	.	.	.	0gl	-ste.	.	.
!!LO:LB:i:g=z
=60||	=60||	=60||	=60||	=60||	=60||	=60||	=60||
*>D	*>D	*>D	*>D	*>D	*>D	*>D	*>D
*clefF4	*	*clefGv2	*	*clefGv2	*	*clefG2	*
*k[]	*	*k[b-]	*	*k[]	*	*k[]	*
*M3/1	*	*M3/1	*	*M2/1	*	*M2/1	*
*met(C)	*	*met(C)	*	*met(C)	*	*met(C)	*
*MM448	*	*MM448	*	*MM448	*	*MM448	*
!!section: Domine deus agnus dei
!!!OMD: Domine deus agnus dei
0r	.	0r	.	0G	Do-	0r	.
=61	=61	=61	=61	=61.	=61	=61.	=61
0r	.	0r	.	1G	-mi-	0r	.
.	.	.	.	[1c	-ne	.	.
=62	=62	=62	=62	=62	=62	=62	=62
0r	.	0r	.	1c]	.	0g	Do-
.	.	.	.	1B	.	.	.
=63	=63	=63	=63	=63.	=63	=63.	=63
0r	.	0r	.	1c	.	1g	-mi-
.	.	.	.	1e	.	[1cc	-ne
=64	=64	=64	=64	=64	=64	=64	=64
0r	.	0r	.	0d	de-	1cc]	.
.	.	.	.	.	.	1b	.
=65	=65	=65	=65	=65.	=65	=65.	=65
0r	.	0r	.	0c	-us,	1cc	.
.	.	.	.	.	.	1ee	.
=66	=66	=66	=66	=66	=66	=66	=66
0r	.	0r	.	0f	a-	0dd	de-
=67	=67	=67	=67	=67.	=67	=67.	=67
0r	.	0r	.	1e	-gnus	0cc	-us,
.	.	.	.	1c	.	.	.
=68	=68	=68	=68	=68	=68	=68	=68
0r	.	0r	.	0d	de-	0ff	a-
=69	=69	=69	=69	=69.	=69	=69.	=69
0r	.	0r	.	0c	-i,	1ee	-gnus
.	.	.	.	.	.	1cc	.
=70	=70	=70	=70	=70	=70	=70	=70
0r	.	0r	.	1r	.	0dd	de-
.	.	.	.	1B	a-	.	.
=71	=71	=71	=71	=71.	=71	=71.	=71
0r	.	0r	.	1c	.	0cc	-i,
.	.	.	.	1A	-gnus	.	.
=72	=72	=72	=72	=72	=72	=72	=72
0r	.	0r	.	0G	de-	1r	.
.	.	.	.	.	.	1b	a-
=73	=73	=73	=73	=73.	=73	=73.	=73
0r	.	0r	.	1.A	.	1cc	.
.	.	.	.	.	.	1a	-gnus
.	.	.	.	2B\	.	.	.
=74	=74	=74	=74	=74	=74	=74	=74
0r	.	0r	.	0c	-i,	0g	de-
=75	=75	=75	=75	=75.	=75	=75.	=75
0r	.	0r	.	1r	.	1a	.
.	.	.	.	1d	a-	1b	.
=76	=76	=76	=76	=76	=76	=76	=76
0r	.	0r	.	1c	.	1.cc	.
.	.	.	.	[1e	.	.	.
.	.	.	.	.	.	2b\	.
=77	=77	=77	=77	=77.	=77	=77.	=77
0r	.	0r	.	1e]	.	1cc	.
.	.	.	.	1f	.	1dd	.
=78	=78	=78	=78	=78	=78	=78	=78
0r	.	0r	.	1g	-gnus	1.ee	.
.	.	.	.	[1c	de-	.	.
.	.	.	.	.	.	2dd\	.
=79	=79	=79	=79	=79.	=79	=79.	=79
0r	.	0r	.	1c]	.	1ee	.
.	.	.	.	1d	.	1ff	.
=80	=80	=80	=80	=80	=80	=80	=80
0r	.	0r	.	1B	.	1dd	.
.	.	.	.	1c	.	1ee	.
=81	=81	=81	=81	=81.	=81	=81.	=81
0r	.	0r	.	0A	.	2ff\	.
.	.	.	.	.	.	2.ee\	.
.	.	.	.	.	.	4dd\	.
.	.	.	.	.	.	2cc\	.
=82	=82	=82	=82	=82	=82	=82	=82
0r	.	0r	.	0G	-i,	0b	-i,
=83	=83	=83	=83	=83.	=83	=83.	=83
*	*	*	*	*M3/3%2	*	*	*
*	*	*	*	*met(3)	*	*	*
0r	.	0r	.	3%2G	fi-	0r	.
.	.	.	.	3%2A	-li-	.	.
.	.	.	.	3%2B	-us	.	.
=84	=84	=84	=84	=84	=84	=84	=84
*	*	*	*	*	*	*M3/3%2	*
*	*	*	*	*	*	*met(3)	*
0r	.	0r	.	3%4c	pa-	3%2g	fi-
.	.	.	.	.	.	3%2a	-li-
.	.	.	.	3%2d	.	3%2b	-us
=85	=85	=85	=85	=85.	=85	=85.	=85
0r	.	0r	.	3%2c	.	3%4cc	pa-
.	.	.	.	3%4f	.	.	.
.	.	.	.	.	.	3%2dd	.
=86	=86	=86	=86	=86	=86	=86	=86
0r	.	0r	.	3%2e	.	3%2cc	.
.	.	.	.	3%4d	.	3%4ff	.
=87	=87	=87	=87	=87.	=87	=87.	=87
0r	.	0r	.	3%2c	.	3%2ee	.
.	.	.	.	3%2d	.	3%4dd	.
.	.	.	.	3%2B	.	.	.
=88	=88	=88	=88	=88	=88	=88	=88
0r	.	0r	.	3%2e	.	3%2cc	.
.	.	.	.	3%2f	.	3%2dd	.
.	.	.	.	3%2g	.	3%2b	.
=89	=89	=89	=89	=89.	=89	=89.	=89
0r	.	0r	.	3%2c	.	3%2ee	.
.	.	.	.	3%2G	.	1dd	.
.	.	.	.	[3%2c	.	.	.
.	.	.	.	.	.	3cc\	.
=90	=90	=90	=90	=90	=90	=90	=90
0r	.	0r	.	3%2c]	.	3%4cc	.
.	.	.	.	3%4d	.	.	.
.	.	.	.	.	.	3%2b	.
=91	=91	=91	=91	=91.	=91	=91.	=91
0r	.	0r	.	0cl	-tris.	0ccl	-tris.
!!LO:LB:i:g=z
=92||	=92||	=92||	=92||	=92||	=92||	=92||	=92||
*>E	*>E	*>E	*>E	*>E	*>E	*>E	*>E
*clefF4	*	*clefGv2	*	*clefGv2	*	*clefG2	*
*k[]	*	*k[b-]	*	*k[]	*	*k[]	*
*M2/1	*	*M2/1	*	*M2/1	*	*M2/1	*
*met(C)	*	*met(C)	*	*met(C)	*	*met(C)	*
!!section: Qui tollis
!!!OMD: Qui tollis
0r	.	0c	Gau-	0r	.	0r	.
=93.	=93	=93.	=93	=93.	=93	=93.	=93
0r	.	1e	-de,	0r	.	0r	.
.	.	1f	.	.	.	.	.
=94	=94	=94	=94	=94	=94	=94	=94
0C	Gau-	[0g	.	0r	.	0r	.
=95.	=95	=95.	=95	=95.	=95	=95.	=95
1E	-de,	1g]	.	0r	.	0r	.
1F	.	1f	glo-	.	.	.	.
=96	=96	=96	=96	=96	=96	=96	=96
0G	.	1e	-ri-	0r	.	0r	.
.	.	[1d	-o-	.	.	.	.
=97.	=97	=97.	=97	=97.	=97	=97.	=97
1F	glo-	2d\]	.	0r	.	0r	.
.	.	2c\	.	.	.	.	.
1E	-ri-	1c	.	.	.	.	.
=98	=98	=98	=98	=98	=98	=98	=98
1D	-o-	2d\	.	0r	.	0r	.
.	.	2B-\	.	.	.	.	.
2C/	.	2c\	.	.	.	.	.
2F\	.	2d\	.	.	.	.	.
=99.	=99	=99.	=99	=99.	=99	=99.	=99
2E\	.	2G/	.	0r	.	0r	.
2C/	.	1c	.	.	.	.	.
1D	.	.	.	.	.	.	.
.	.	2Bni\	.	.	.	.	.
=100	=100	=100	=100	=100	=100	=100	=100
1C	.	2c\	.	0r	.	0r	.
.	.	2e-\	.	.	.	.	.
2BB-i/	.	2d\	.	.	.	.	.
2C/	.	2c\	.	.	.	.	.
=101.	=101	=101.	=101	=101.	=101	=101.	=101
2E-\	.	1g	.	0r	.	0r	.
1D	.	.	.	.	.	.	.
.	.	2f\	.	.	.	.	.
2C/	.	[2e-i\	.	.	.	.	.
=102	=102	=102	=102	=102	=102	=102	=102
1G	.	2e-\]	.	0r	.	0r	.
.	.	1d	.	.	.	.	.
2F\	.	.	.	.	.	.	.
2E-i\	.	2c\	.	.	.	.	.
=103.	=103	=103.	=103	=103.	=103	=103.	=103
2C/	.	1c	.	0r	.	0r	.
2E-i\	.	.	.	.	.	.	.
1D	.	2Bni\	.	.	.	.	.
.	.	2A/	.	.	.	.	.
=104	=104	=104	=104	=104	=104	=104	=104
0C	-sa,	0c	-sa,	0r	.	0r	.
=105.	=105	=105.	=105	=105.	=105	=105.	=105
0r	.	0r	.	0r	.	0r	.
=106	=106	=106	=106	=106	=106	=106	=106
[0C	su-	[0c	su-	0g	Qui	0cc	Qui
=107.	=107	=107.	=107	=107.	=107	=107.	=107
0C_	.	0c_	.	1g	tol-	0cc	tol-
.	.	.	.	1g	-lis	.	.
=108	=108	=108	=108	=108	=108	=108	=108
0C_	.	0c_	.	0g	pec-	1g	-lis
.	.	.	.	.	.	1cc	pec-
=109.	=109	=109.	=109	=109.	=109	=109.	=109
0C]	.	0c_	.	0g	-ca-	1.cc	-ca-
.	.	.	.	.	.	2b\	.
=110	=110	=110	=110	=110	=110	=110	=110
0F	.	0c_	.	0f	-ta	0a	.
=111.	=111	=111.	=111	=111.	=111	=111.	=111
0C	.	0c]	.	0e-	mun-	0g	-ta
=112	=112	=112	=112	=112	=112	=112	=112
[0D	-per	[0A	-per	0d	-di,	0f#i	mun-
=113.	=113	=113.	=113	=113.	=113	=113.	=113
0D]	.	0A]	.	1r	.	0f#i	-di,
.	.	.	.	1d	mi-	.	.
=114	=114	=114	=114	=114	=114	=114	=114
1G	om-	1B-	om-	1e-i	.	1g	mi-
1D	.	1A	.	1d	-se-	1f#i	-se-
=115.	=115	=115.	=115	=115.	=115	=115.	=115
1G	.	1B-	.	1e-i	-re-	1g	-re-
1F	.	1c	.	1f	-re	1a	-re
=116	=116	=116	=116	=116	=116	=116	=116
1D	.	1d	.	1B-	no-	1.b-	no-
1E-	.	1G	.	1c	.	.	.
.	.	.	.	.	.	4a/	.
.	.	.	.	.	.	4g/	.
=117.	=117	=117.	=117	=117.	=117	=117.	=117
0D	.	0A	.	0d	.	1.f#i	.
.	.	.	.	.	.	2e/	.
=118	=118	=118	=118	=118	=118	=118	=118
0E-i	.	[0G	-nes,	0B-i	.	[0g	.
=119.	=119	=119.	=119	=119.	=119	=119.	=119
[0C	-nes,	0G_	.	[0c	-bis.	1g]	.
.	.	.	.	.	.	1e	.
=120	=120	=120	=120	=120	=120	=120	=120
0C_	.	0G_	.	0c_	.	[0e	-bis.
=121.	=121	=121.	=121	=121.	=121	=121.	=121
0C]	.	0G]	.	0c]	.	0e]	.
=122	=122	=122	=122	=122	=122	=122	=122
0r	.	[0G	om-	0d	Qui	1.g	Qui
.	.	.	.	.	.	2a/	.
=123.	=123	=123.	=123	=123.	=123	=123.	=123
0r	.	0G]	.	0g	.	0b	.
=124	=124	=124	=124	=124	=124	=124	=124
[0F	om-	[0A	.	1.f	tol-	1a	tol-
.	.	.	.	.	.	[1cc	.
.	.	.	.	2e\	.	.	.
=125.	=125	=125.	=125	=125.	=125	=125.	=125
1F]	.	1A]	.	2c\	.	1cc]	.
.	.	.	.	2d\	.	.	.
1G	.	1Bni	.	1e	.	1b	.
=126	=126	=126	=126	=126	=126	=126	=126
1F	.	[0c	.	1f	-lis	1a	-lis
1E	.	.	.	2g\	.	1g	pec-
.	.	.	.	2e\	.	.	.
=127.	=127	=127.	=127	=127.	=127	=127.	=127
1F	.	1c]	.	2r	.	1a	-ca-
.	.	.	.	2c\	pec-	.	.
1D	.	1Bni	.	1d	.	1f	-ta
=128	=128	=128	=128	=128	=128	=128	=128
0C	.	1c	.	2G/	-ca-	1.e	mun-
.	.	.	.	2.c\	.	.	.
.	.	1A	.	.	.	.	.
.	.	.	.	4B\	.	.	.
.	.	.	.	2A/	.	2c/	.
=129.	=129	=129.	=129	=129.	=129	=129.	=129
1BB	.	1Bni	.	2.G/	-ta	1d	.
.	.	.	.	4F/	.	.	.
1AA	.	[1c	.	1A	mun-	1e	.
=130	=130	=130	=130	=130	=130	=130	=130
0C	.	1c]	.	1G	-di,	2f/	.
.	.	.	.	.	.	2.e/	.
.	.	1e	.	1c	.	.	.
.	.	.	.	.	.	4d/	.
.	.	.	.	.	.	2c/	.
=131.	=131	=131.	=131	=131.	=131	=131.	=131
0G	.	0d	.	1r	.	0B	.
.	.	.	.	1d	su-	.	.
=132	=132	=132	=132	=132	=132	=132	=132
[0C	-nes	0c	-nes	1e	-sci-	1c	-di,
.	.	.	.	2f\	.	1r	.
.	.	.	.	[2g\	.	.	.
=133.	=133	=133.	=133	=133.	=133	=133.	=133
0C]	.	0r	.	1g]	.	1.cc	su-
.	.	.	.	2a\	-pe	.	.
.	.	.	.	2g\	.	2b\	.
=134	=134	=134	=134	=134	=134	=134	=134
0r	.	[0c	spe-	0e	.	2a/	-sci-
.	.	.	.	.	.	2g/	.
.	.	.	.	.	.	[1g	-pe
=135.	=135	=135.	=135	=135.	=135	=135.	=135
0C	spe-	0c]	.	1r	.	1g]	.
.	.	.	.	1e	de-	1cc	de-
=136	=136	=136	=136	=136	=136	=136	=136
1.G	-ci-	[0d	-ci-	1d	.	1b	.
.	.	.	.	1g	-pre-	1b	-pre-
2F\	.	.	.	.	.	.	.
=137.	=137	=137.	=137	=137.	=137	=137.	=137
0D	-o-	0d]	.	1.f	-ca-	1a	-ca-
.	.	.	.	.	.	1b	-ti-
.	.	.	.	2e\	-ti-	.	.
=138	=138	=138	=138	=138	=138	=138	=138
[0C	.	[0e	.	0g	-o-	1.cc	-o-
.	.	.	.	.	.	2b\	.
=139.	=139	=139.	=139	=139.	=139	=139.	=139
0C]	.	0e]	.	0c	-nem	0g	-nem
=140	=140	=140	=140	=140	=140	=140	=140
0D	-sa,	0f	-o-	1A	no-	1r	.
.	.	.	.	2B\	.	1dd	no-
.	.	.	.	[2A/	.	.	.
=141.	=141	=141.	=141	=141.	=141	=141.	=141
1r	.	1e	.	2A/]	.	1cc	.
.	.	.	.	2c\	.	.	.
1D	spe-	1f	.	2B\	.	1dd	.
.	.	.	.	2A/	.	.	.
=142	=142	=142	=142	=142	=142	=142	=142
1.C	-ci-	1g	.	1.c	.	1.ee	.
.	.	[1e	.	.	.	.	.
2D\	.	.	.	2B\	.	2dd\	.
=143.	=143	=143.	=143	=143.	=143	=143.	=143
1E	-o-	1e]	.	2G/	.	1cc	.
.	.	.	.	2A/	.	.	.
1BB	.	1d	.	2G/	.	2b\	.
.	.	.	.	4F/	.	2dd\	.
.	.	.	.	4G/	.	.	.
=144	=144	=144	=144	=144	=144	=144	=144
1AA	.	1f	.	1A	-stram,	2cc\	.
.	.	.	.	.	.	1a	.
[1C	.	1e	.	1r	.	.	.
.	.	.	.	.	.	2g/	.
=145.	=145	=145.	=145	=145.	=145	=145.	=145
1C]	.	1.c	.	1G	no-	2cc\	.
.	.	.	.	.	.	2dd\	.
1C	.	.	.	1c	.	1ee	.
.	.	2A/	.	.	.	.	.
=146	=146	=146	=146	=146	=146	=146	=146
1G	.	1Bni	.	2d\	.	2.dd\	.
.	.	.	.	2e\	.	.	.
.	.	.	.	.	.	4cc\	.
1A	.	1c	.	2.f#i\	.	[1cc	.
.	.	.	.	4e\	.	.	.
=147.	=147	=147.	=147	=147.	=147	=147.	=147
0G	.	0d	.	[0g	.	2cc\]	.
.	.	.	.	.	.	2b\	.
.	.	.	.	.	.	2b\	.
.	.	.	.	.	.	2a/	.
=148	=148	=148	=148	=148	=148	=148	=148
[0Cl	-sa.	[0cl	-sa.	1g]	.	[0ccl	-stram.
.	.	.	.	2e\	.	.	.
.	.	.	.	2f\	.	.	.
=149.	=149	=149.	=149	=149.	=149	=149.	=149
0C]	.	0c]	.	0gl	-stram.	0cc]	.
!!LO:LB:i:g=z
=150||	=150||	=150||	=150||	=150||	=150||	=150||	=150||
*>F	*>F	*>F	*>F	*>F	*>F	*>F	*>F
*clefF4	*	*clefGv2	*	*clefGv2	*	*clefG2	*
*k[]	*	*k[b-]	*	*k[]	*	*k[]	*
*M2/1	*	*M2/1	*	*M2/1	*	*M2/1	*
*met(C)	*	*met(C)	*	*met(C)	*	*met(C)	*
!!section: Qui sedes
!!!OMD: Qui sedes
[0C	Va-	[0c	Va-	0g	Qui	0cc	Qui
=151.	=151	=151.	=151	=151.	=151	=151.	=151
0C]	.	0c_	.	0g	se-	1.cc	se-
.	.	.	.	.	.	2b\	.
=152	=152	=152	=152	=152	=152	=152	=152
0F	.	0c_	.	0f	.	0a	.
=153.	=153	=153.	=153	=153.	=153	=153.	=153
0C	.	0c]	.	1e	-des	1g	-des
.	.	.	.	[1g	ad	1cc	ad
=154	=154	=154	=154	=154	=154	=154	=154
1.G	.	[0d	.	1g]	.	1b	dex-
.	.	.	.	[1g	dex-	2b\	-te-
2A\	.	.	.	.	.	2cc\	.
=155.	=155	=155.	=155	=155.	=155	=155.	=155
0B	.	0d]	.	1g]	.	0dd	-ram
.	.	.	.	1f	-te-	.	.
=156	=156	=156	=156	=156	=156	=156	=156
1c	.	[0e	.	1e	-ram	0cc	pa-
1A	.	.	.	1c	.	.	.
=157.	=157	=157.	=157	=157.	=157	=157.	=157
0G	.	0e]	.	0g	pa-	0b	-tris,
=158	=158	=158	=158	=158	=158	=158	=158
[0F	-le,	0f	-le,	0c	-tris,	1r	.
.	.	.	.	.	.	1cc	mi-
=159.	=159	=159.	=159	=159.	=159	=159.	=159
0F]	.	1.f	va-	1c	mi-	1cc	-se-
.	.	.	.	1c	-se-	1a	.
.	.	2e\	.	.	.	.	.
=160	=160	=160	=160	=160	=160	=160	=160
1G	va-	1d	.	1B-	-re-	1b-	-re-
1A	.	1c	.	1c	-re	1a	-re
=161.	=161	=161.	=161	=161.	=161	=161.	=161
0B-	.	0d	.	0G	no-	2g/	no-
.	.	.	.	.	.	1g	.
.	.	.	.	.	.	2f/	.
=162	=162	=162	=162	=162	=162	=162	=162
[0A	-le,	[0e	-le,	[0c	-bis.	0a	-bis.
=163.	=163	=163.	=163	=163.	=163	=163.	=163
0A]	.	0e]	.	0c]	.	0r	.
=164	=164	=164	=164	=164	=164	=164	=164
0c	val-	0r	.	0A	Quo-	1ee	Quo-
.	.	.	.	.	.	1ee	-ni-
=165.	=165	=165.	=165	=165.	=165	=165.	=165
[0G	.	0r	.	1.B	-ni-	0dd	-am
.	.	.	.	2c\	.	.	.
=166	=166	=166	=166	=166	=166	=166	=166
0G]	.	[0g	val-	0d	-am	0b	tu
=167.	=167	=167.	=167	=167.	=167	=167.	=167
0C	.	0g]	.	0e	tu	0cc	so-
=168	=168	=168	=168	=168	=168	=168	=168
0D	.	0f	.	1r	.	1a	-lus
.	.	.	.	1f	so-	1b	.
=169.	=169	=169.	=169	=169.	=169	=169.	=169
0C	.	0e	-de	0g	-lus	0cc	.
=170	=170	=170	=170	=170	=170	=170	=170
[0G	-de	[0d	.	0g	san-	0dd	san-
=171.	=171	=171.	=171	=171.	=171	=171.	=171
0G]	.	0d]	.	0g	-ctus.	1b	-ctus.
.	.	.	.	.	.	1r	.
=172	=172	=172	=172	=172	=172	=172	=172
0r	.	[0c	de-	1r	.	1cc	Tu
.	.	.	.	[1e	Tu	[1cc	so-
=173.	=173	=173.	=173	=173.	=173	=173.	=173
[0C	de-	0c]	.	1e]	.	2cc\]	.
.	.	.	.	.	.	2b\	.
.	.	.	.	1e	so-	2a/	.
.	.	.	.	.	.	2g/	.
=174	=174	=174	=174	=174	=174	=174	=174
0C]	.	0e	.	0c	-lus	0g	-lus
=175.	=175	=175.	=175	=175.	=175	=175.	=175
0D	.	0d	.	1A	do-	1r	.
.	.	.	.	1B-	.	1f	do-
=176	=176	=176	=176	=176	=176	=176	=176
0AA	.	0c	.	1c	.	1e	.
.	.	.	.	[1A	.	1a	.
=177.	=177	=177.	=177	=177.	=177	=177.	=177
0BB-	-co-	0d	-co-	1A]	.	3g/	-mi-
.	.	.	.	.	.	3%2f	.
.	.	.	.	1G	-mi-	3e/	.
.	.	.	.	.	.	3%2d	.
=178	=178	=178	=178	=178	=178	=178	=178
0AA;	-ra,	0e;	-ra,	0A;	-nus.	0c;	-nus.
=179.	=179	=179.	=179	=179.	=179	=179.	=179
0C	et	0r	.	1G	Tu	0r	.
.	.	.	.	1c	.	.	.
=180	=180	=180	=180	=180	=180	=180	=180
0G	.	0r	.	0B	so-	0r	.
=181.	=181	=181.	=181	=181.	=181	=181.	=181
0A-	pro	0r	.	1c	-lus	0cc	Tu
.	.	.	.	1c	al-	.	.
=182	=182	=182	=182	=182	=182	=182	=182
0G	.	0r	.	1d	-tis-	0b	so-
.	.	.	.	1d	-si-	.	.
=183.	=183	=183.	=183	=183.	=183	=183.	=183
1C	no-	0r	.	0e	-mus	1cc	-lus
1E	.	.	.	.	.	1cc	al-
=184	=184	=184	=184	=184	=184	=184	=184
1D	-bis	0r	.	0f	Je-	1dd	-tis-
1BB	.	.	.	.	.	1dd	-si-
=185.	=185	=185.	=185	=185.	=185	=185.	=185
1C	.	0r	.	1e	.	0ee	-mus
[1AA	Chri-	.	.	1c	.	.	.
=186	=186	=186	=186	=186	=186	=186	=186
2AA/]	.	0r	.	0d	-su	0ff	Je-
1.BB	.	.	.	.	.	.	.
=187.	=187	=187.	=187	=187.	=187	=187.	=187
0C	-stum,	0r	.	0c	.	1ee	.
.	.	.	.	.	.	1cc	.
=188	=188	=188	=188	=188	=188	=188	=188
0G	.	0r	.	1r	.	0dd	-su
.	.	.	.	1B	Chri-	.	.
=189.	=189	=189.	=189	=189.	=189	=189.	=189
0r	.	0r	.	2c\	.	1cc	.
.	.	.	.	1A	.	.	.
.	.	.	.	.	.	2a/	Chri-
.	.	.	.	2G/	.	2b\	.
=190	=190	=190	=190	=190	=190	=190	=190
0r	.	0r	.	1c	.	2g/	.
.	.	.	.	.	.	1cc	.
.	.	.	.	2e\	.	.	.
.	.	.	.	2d\	.	2b\	.
=191.	=191	=191.	=191	=191.	=191	=191.	=191
0r	.	0r	.	2e\	.	1cc	-ste,
.	.	.	.	1c	.	.	.
.	.	.	.	.	.	2a/	Je-
.	.	.	.	2A/	.	2cc\	.
=192	=192	=192	=192	=192	=192	=192	=192
0r	.	0r	.	1B	-ste,	2b\	.
.	.	.	.	.	.	2dd\	.
.	.	.	.	1c	.	2cc\	.
.	.	.	.	.	.	[2a/	.
=193.	=193	=193.	=193	=193.	=193	=193.	=193
0r	.	0r	.	1d	.	2a/]	.
.	.	.	.	.	.	1dd	.
.	.	.	.	[1G	Je-	.	.
.	.	.	.	.	.	[2b\	.
=194	=194	=194	=194	=194	=194	=194	=194
0r	.	0r	.	1G]	.	2b\]	.
.	.	.	.	.	.	2g/	.
.	.	.	.	1F	-su	1a	-su
=195.	=195	=195.	=195	=195.	=195	=195.	=195
0r	.	0r	.	1G	Chri-	2d/	Chri-
.	.	.	.	.	.	2e/	.
.	.	.	.	1B-i	.	2d/	.
.	.	.	.	.	.	2g/	.
=196	=196	=196	=196	=196	=196	=196	=196
0r	.	0r	.	0A	.	2a/	.
.	.	.	.	.	.	1f#i	.
.	.	.	.	.	.	2e/	.
=197.	=197	=197.	=197	=197.	=197	=197.	=197
0r	.	0r	.	0G	-ste.	0g	-ste.
=198	=198	=198	=198	=198	=198	=198	=198
0r	.	0r	.	0r	.	0r	.
=199.	=199	=199.	=199	=199.	=199	=199.	=199
0c	et	0e	et	0g	Cum	0cc	Cum
=200	=200	=200	=200	=200	=200	=200	=200
[0G	pro	0d	pro	0g	san-	0b 0dd	san-
=201.	=201	=201.	=201	=201.	=201	=201.	=201
0G]	.	0e	.	0g	-cto	0b	-cto
=202	=202	=202	=202	=202	=202	=202	=202
0F	no-	0f	no-	[0c	spi-	0a	spi-
=203.	=203	=203.	=203	=203.	=203	=203.	=203
0C	.	1e	.	1c]	.	1g	.
.	.	1c	.	1e	.	[1cc	.
=204	=204	=204	=204	=204	=204	=204	=204
0G	.	0d	.	1d	.	1cc]	.
.	.	.	.	[1g	-ri-	1b	-ri-
=205.	=205	=205.	=205	=205.	=205	=205.	=205
[0C	-bis	[0c	-bis	0g]	.	[0cc	-tu
=206	=206	=206	=206	=206	=206	=206	=206
0C]	.	0c]	.	0e	-tu,	0cc]	.
=207.	=207	=207.	=207	=207.	=207	=207.	=207
0BB	sem-	0d	sem-	1d	cum	0r	.
.	.	.	.	1f	.	.	.
=208	=208	=208	=208	=208	=208	=208	=208
0C	-per	0c	-per	2e\	san-	0r	.
.	.	.	.	1g	.	.	.
.	.	.	.	2f\	.	.	.
=209.	=209	=209.	=209	=209.	=209	=209.	=209
1G	Chri-	1Bni	.	1d	-cto	0r	.
1A	.	[1A	Chri-	[1c	spi-	.	.
=210	=210	=210	=210	=210	=210	=210	=210
1F	.	1A]	.	2c\]	.	0r	.
.	.	.	.	2A/	.	.	.
1G	.	[1G	.	1B	.	.	.
=211.	=211	=211.	=211	=211.	=211	=211.	=211
1C	.	1G]	.	2.c\	.	0r	.
.	.	.	.	4B\	.	.	.
1E	.	[1c	.	[1G	.	.	.
=212	=212	=212	=212	=212	=212	=212	=212
0D	.	1c]	.	1G]	.	0r	.
.	.	1Bni	.	1F	-ri-	.	.
=213.	=213	=213.	=213	=213.	=213	=213.	=213
[0C	-stum	0c	-stum	[0G	-tu	0r	.
=214	=214	=214	=214	=214	=214	=214	=214
0C]	.	0r	.	0G]	.	0cc	in
=215.	=215	=215.	=215	=215.	=215	=215.	=215
0r	.	3%4cV	ex	0r	.	3%4ccV	glo-
.	.	[3%2dZ	.	.	.	3%2aZ	-ri-
=216	=216	=216	=216	=216	=216	=216	=216
0r	.	3%2d]V	.	0r	.	3%4bV	-a
.	.	3%4eZ	.	.	.	.	.
.	.	.	.	.	.	[3%2ccZ	de-
=217.	=217	=217.	=217	=217.	=217	=217.	=217
0r	.	3%4fV	o-	0r	.	3%2cc]V	.
.	.	.	.	.	.	3%2dd	.
.	.	3%2eZ	.	.	.	3%2ccZ	.
=218	=218	=218	=218	=218	=218	=218	=218
0r	.	3%2fV	.	0r	.	3%2ddV	.
.	.	3%2.g	.	.	.	3%4eeZ	-i
.	.	3f\Z	.	.	.	.	.
=219.	=219	=219.	=219	=219.	=219	=219.	=219
0r	.	3%4dV	.	0r	.	3%2ffV	pa-
.	.	.	.	.	.	3%2dd	.
.	.	[3%2cZ	.	.	.	3%2eeZ	.
=220	=220	=220	=220	=220	=220	=220	=220
0r	.	3%2c]V	.	0r	.	3%2ccV	.
.	.	3%4fZ	.	.	.	3dd\	.
.	.	.	.	.	.	3cc\	.
.	.	.	.	.	.	3b\	.
.	.	.	.	.	.	3a/Z	.
=221.	=221	=221.	=221	=221.	=221	=221.	=221
0r	.	3%4eV	.	0r	.	3%2gV	.
.	.	.	.	.	.	3%2cc	.
.	.	[3%2dZ	.	.	.	3%2ddZ	.
=222	=222	=222	=222	=222	=222	=222	=222
0r	.	0d]	.	0r	.	3%2aV	.
.	.	.	.	.	.	3%2b	.
.	.	.	.	.	.	3a/	.
.	.	.	.	.	.	3b\Z	.
=223.	=223	=223.	=223	=223.	=223	=223.	=223
0r	.	[0c	-ra.	0r	.	[0cc	-tris.
=224	=224	=224	=224	=224	=224	=224	=224
0r	.	0c]	.	0c	in	0cc]	.
=225.	=225	=225.	=225	=225.	=225	=225.	=225
3%4CV	ex	0r	.	3%4cV	glo-	0r	.
[3%2DZ	.	.	.	3%2AZ	-ri-	.	.
=226	=226	=226	=226	=226	=226	=226	=226
3%2D]V	.	0r	.	3%4BV	-a	0r	.
3%4EZ	.	.	.	.	.	.	.
.	.	.	.	[3%2cZ	de-	.	.
=227.	=227	=227.	=227	=227.	=227	=227.	=227
3%4FV	o-	0r	.	3%2c]V	.	0r	.
.	.	.	.	3%2d	.	.	.
3%2EZ	.	.	.	3%2cZ	.	.	.
=228	=228	=228	=228	=228	=228	=228	=228
3%2FV	.	0r	.	3%2dV	.	0r	.
3%2.G	.	.	.	3%4eZ	-i	.	.
3F\Z	.	.	.	.	.	.	.
=229.	=229	=229.	=229	=229.	=229	=229.	=229
3%4DV	.	0r	.	3%2fV	pa-	0r	.
.	.	.	.	3%2d	.	.	.
[3%2CZ	.	.	.	3%2eZ	.	.	.
=230	=230	=230	=230	=230	=230	=230	=230
3%2C]V	.	0r	.	3%2cV	.	0r	.
3%4FZ	.	.	.	3d\Z	.	.	.
.	.	.	.	3c\V	.	.	.
.	.	.	.	3B\	.	.	.
.	.	.	.	3A/Z	.	.	.
=231.	=231	=231.	=231	=231.	=231	=231.	=231
3%4EV	.	0r	.	3%2GV	.	0r	.
.	.	.	.	3%2c	.	.	.
[3%2DZ	.	.	.	3%2dZ	.	.	.
=232	=232	=232	=232	=232	=232	=232	=232
0D]	.	0r	.	3%2AV	.	0r	.
.	.	.	.	3%2B	.	.	.
.	.	.	.	3A/	.	.	.
.	.	.	.	3B\Z	.	.	.
=233.	=233	=233.	=233	=233.	=233	=233.	=233
0C	-ra.	0r	.	0c	-tris.	0r	.
=234	=234	=234	=234	=234	=234	=234	=234
0r	.	0r	.	0r	.	0r	.
=235.	=235	=235.	=235	=235.	=235	=235.	=235
*^	*	*	*	*	*	*	*
0C;\l	0c;\l	A-	0e;l	A-	0g;l	A-	0cc;l	A-
*v	*v	*	*	*	*	*	*	*
=236	=236	=236	=236	=236	=236	=236	=236
0G;l	.	0d;l	.	0g;l	.	0b;l	.
=237.	=237	=237.	=237	=237.	=237	=237.	=237
0C;l	-men.	0c;l	-men.	0e; 0g;l	-men.	0cc;l	-men.
==	==	==	==	==	==	==	==
*-	*-	*-	*-	*-	*-	*-	*-
!!!RDF**kern: l=long note in original notation
!!!RDF**kern: i=editorial accidental
!!!RDF**kern: V=start of tuplet marker
!!!RDF**kern: Z=end of tuplet marker
!!!ENC:	Alejandro Planchart
!!!END:	2014/07/19/
!!!EED:	Alejandro Planchart, Jesse Rodin
!!!EEV:	2014/07/23/
!!!ONB:	Translated from SCORE and edited on 2014/07/23/ by Craig Sapp
!!!SMS: Ed. J. Rodin based on edition by A. Planchart
!!muse2ps: T^@{OPR}^u^@{ONM}{. }@{OTL}^C^@{COM}\n@{SMS}^i2I150v85,85,85,130Q1c148
